X: 40
T: Tennessee Waltz   [D]
C: Pee Wee King [Julius Frank Anthony Kuczynski] (1914-2000)
%date:1947
M: 3/4
L: 1/8
K: D
DE |\
"D"F2 A2 DE | F2 A2 de | "D7"f2 [a2f2-] fe | "G"d2 B3 c || "D"d2 A2 F2 |\
[1 "(Bm)"B2 A2 F2 | "A(Em)"E4 EF | "A7"E4 :|[2 "A7"G2 F2 E2 | "D"D4 DE | "D"D4 |]
de |\
"D"f2 [a3f3] f | "F#7"e4 fe | "G"d2 B2 d2 | "D"A4 Bc ||\
"D"d2 A2 F2 | "(Bm)"B2 A2 F2 | "A(Em)"E4 EF | "A7"E4 |]
DE |\
"D"F2 A2 DE | F2 A2 de | "D7"f2 [a2f2-] fe | "G"d2 B3 c "^I"||\
"D"d2 A2 F2 | "A7"G2 F2 E2 | "D"D4 DE | D4 |]


